X:1
T:Ave Maria
C:Franz Schubert
M:12/8
L:1/8
Q:3/8=50
K:Bb
% A section — D.839, vocal melody, bars 1-12
F3 | G6 A3 B3 | c6 d6 | c3 B3 A6 | G6 F6 |
G3 A3 B3 c3 | d6 c3 B3 | A3 G3 F6 | A6 G6 |
A3 B3 c3 d3 | c6 B6 | A6 G3 F3 | F12 |]
